X:619
T:Reel 619
M:4/4
K:Dmix
L:1/8
dc|AD (3FED ADFD|GECE DECE|ADFE FdcA|GEcE DDDd|ADFD FDAD|GECE DCCE|FEFE FGAd|cAGE D2|FG|Addc Addc|AGAB cAGE|Addc dcde|fdee d2cB|Addc Acdc|ABcB cded|edcB ABcd|edce d2dB|
